lib/svgs/bookkeeping-logo.svg

<svg xmlns="http://www.w3.org/2000/svg" viewBox="0 0 20 20">
    <path fill="#000" fill-rule="evenodd" d="M10,2 C5.582,2 2,5.582 2,10 C2,14.418 5.582,18 10,18 C14.418,18 18,14.418 18,10 C18,5.582 14.418,2 10,2 L10,2 L10,2 Z M10,16.8 C6.25,16.8 3.2,13.75 3.2,10 C3.2,6.25 6.25,3.2 10,3.2 C13.75,3.2 16.8,6.25 16.8,10 C16.8,13.75 13.75,16.8 10,16.8 L10,16.8 L10,16.8 Z M12.7443,5.9072 L10.0003,8.6502 L7.2573,5.9072 C7.0233,5.6732 6.6433,5.6732 6.4093,5.9072 C6.1743,6.1412 6.1743,6.5212 6.4093,6.7562 L8.6253,8.9722 L7.0303,8.9722 C6.6993,8.9722 6.4303,9.2402 6.4303,9.5722 C6.4303,9.9042 6.6993,10.1722 7.0303,10.1722 L9.4003,10.1722 L9.4003,11.3282 L7.0303,11.3282 C6.6993,11.3282 6.4303,11.5972 6.4303,11.9282 C6.4303,12.2602 6.6993,12.5292 7.0303,12.5292 L9.4003,12.5292 L9.4003,14.3322 C9.4003,14.6632 9.6683,14.9312 10.0003,14.9312 C10.3313,14.9312 10.6003,14.6632 10.6003,14.3322 L10.6003,12.5292 L12.9713,12.5292 C13.3023,12.5292 13.5713,12.2602 13.5713,11.9282 C13.5713,11.5972 13.3023,11.3282 12.9713,11.3282 L10.6003,11.3282 L10.6003,10.1722 L12.9713,10.1722 C13.3023,10.1722 13.5713,9.9042 13.5713,9.5722 C13.5713,9.2402 13.3023,8.9722 12.9713,8.9722 L11.3763,8.9722 L13.5933,6.7562 C13.8273,6.5212 13.8273,6.1412 13.5933,5.9072 C13.3593,5.6742 12.9793,5.6732 12.7443,5.9072 L12.7443,5.9072 L12.7443,5.9072 Z"/>
</svg>

<svg xmlns="http://www.w3.org/2000/svg" viewBox="0 0 20 20">
    <path fill="#000" fill-rule="evenodd" d="M10 2a8 8 0 1 0 0 16 8 8 0 0 0 0-16m0 14.8c-3.75 0-6.8-3.05-6.8-6.8S6.25 3.2 10 3.2s6.8 3.05 6.8 6.8-3.05 6.8-6.8 6.8m2.744-10.893L10 8.65 7.257 5.907a.6.6 0 1 0-.848.85l2.216 2.215H7.03a.6.6 0 1 0 0 1.2H9.4v1.156H7.03a.6.6 0 0 0 0 1.201H9.4v1.803a.599.599 0 1 0 1.2 0V12.53h2.371a.6.6 0 0 0 0-1.2h-2.37v-1.157h2.37a.6.6 0 1 0 0-1.2h-1.595l2.217-2.216a.601.601 0 0 0-.849-.849"/>
</svg>
